X:1
T:Title
%%score [ 1 ( 2 3 ) ( 4 5 ) ]
L:1/8
Q:1/4=120
M:3/4
K:C
V:1 treble nm="Midi_74"
V:2 treble nm="Midi_74"
V:3 treble 
V:4 bass nm="Midi_74"
V:5 bass 
V:1
 z6 | z6 | z6 | z6 | z6 | z6 |[M:3/4] z6 | z6 | z6 | z6 | z6 | z6 |[M:3/4] z6 | z6 | z6 | z6 | z6 | %17
w: |||||||||||||||||
 z6 |[M:3/4] z6 | z6 | z6 | z6 | z6 | z6 ||[K:F][M:3/4][K:treble]"^Sopranos" F4 F2 | G4 A2 | %26
w: |||||||4.~Ho- ly|Fa- ther,|
 (B2 c2) B2 | A2 (c2 d2 | e4) e2 |"^Descant by Andrew Sims" f4 d2 |[M:3/4] c4 c2 | c2 c2 z2 | %32
w: ho * ly|Son, Ho *|* ly|Spi- rit|Three we|name thee,|
 (f2 ed) (cB) | (A2 G2) F2 | c4 G2 | (A4 B2) | (c2 d2) e2 | f4 F2 | (c2 B2) A2 | (cd) e2 z2 | %40
w: while * * in *|es * sence|on- ly|One, *|un * di-|vi- ded|God * we|claim * thee;|
 (e2 de) ^f2 | g4 e2 | (f2 c2) d2 | e6 | d4 d2 | e4 f2 | f4 e2 | f6 |] %48
w: then, * * a-|dor- ing,|bend * the|knee|and con-|fess the|my- ste-|ry.|
V:2
[K:F]"^Paraphrase by Ignaz Franz (1719-1790),\ntr. Clarence Walworth (1820-1900)" F4 F2 | %1
w: Ho- ly|
w: |
w: Lo, the|
 (F2 E2) F2 |"^Paraphrase of Te Deum" (G2 A2) G2 | F6 | A4 A2 | %5
w: God, * we|praise * thy|Name,|Lord of|
w: ||||
w: a * po-|sto * lic|train|join, thy|
"^From Katholisches \nGesangbuch, 1686,\nharmonised by \nCharles Winfred Douglas\n(1867-1944)" (A2 G2) F2 | %6
w: all, * we|
w: |
w: sa * cred|
 (c2 B2) A2 | A2 G2 z2 | F4 F2 | (F2 E2) F2 | (G2 A2) G2 | F6 | A4 A2 | (A2 G2) F2 | (c2 B2) A2 | %15
w: bow * be-|fore thee;|all on|earth * thy|scep * tre|claim,|all in|heav'n * a-|bove * a-|
w: |||||||||
w: Name * to|hal- low;|pro- phets|swell * the|loud * re-|frain,|and the|white * robed|mar * tyrs|
 A2 G2 z2 | G4 A2 | B4 G2 | A4 B2 | c6 | d4 d2 | (c2 B2) A2 | (B2 A2) G2 | F6 || %24
w: dore thee;|in- fi-|nite thy|vast do-|main,|ev- er-|last * ing|is * thy|reign.|
w: |||||||||
w: fol- low;|and, from|morn till|set of|sun,|through the|Church * the|song * goes|on.|
[M:3/4]"^Other voices in unison" F4 F2 | (F2 E2) F2 | (G2 A2) G2 | F4 z2 | A4 A2 | (A2 G2) F2 | %30
w: ||||||
w: ||||||
w: ||||||
[M:3/4] (c2 B2) A2 | A2 G2 z2 | F4 F2 | (F2 E2) F2 | (G2 A2) G2 | F4 z2 | A4 A2 | (A2 G2) F2 | %38
w: ||||||||
w: ||||||||
w: ||||||||
 (c2 B2) A2 | A2 G2 z2 | G4 A2 | B4 G2 | A4 B2 | c6 | d4 d2 | (c2 B2) A2 | (B2 A2) G2 | F6 |] %48
w: ||||||||||
w: ||||||||||
w: ||||||||||
V:3
[K:F] C4 C2 | C4 C2 | D4 E2 | F6 | F4 F2 | (F2 E2) D2 | G4 F2 | F2 E2 z2 | C4 C2 | C4 C2 | D4 E2 | %11
w: |||||||||||
w: Hark, the|loud ce-|les- tial|hymn|an- gel|choirs * a-|bove are|rais- ing;|che- ru-|bim and|ser- a-|
 F6 | F4 F2 | (F2 E2) D2 | G4 F2 | F2 E2 z2 | (E2 D2) E2 | G4 G2 | F4 F2 | E6 | F4 F2 | E4 F2 | %22
w: |||||||||||
w: phim,|in un-|ceas * ing|cho- rus|prais- ing,|fill * the|heav'ns with|sweet ac-|cord:|ho- ly,|ho- ly,|
 D4 E2 | F6 ||[M:3/4] C4 C2 | C4 C2 | E4 E2 | F4 z2 | E4 E2 | F2 E2 D2 |[M:3/4] G4 F2 | F2 E2 z2 | %32
w: ||||||||||
w: ho- ly|Lord!|||||||||
 C4 C2 | C4 C2 | E4 E2 | F4 z2 | F4 F2 | F2 E2 C2 | F2 E2 F2 | F2 E2 z2 | E2 G2 ^F2 | G2 D2 E2 | %42
w: ||||||||||
w: ||||||||||
 F4 F2 | E6 | F4 F2 | E4 F2 | F4 E2 | F6 |] %48
w: ||||||
w: ||||||
V:4
[K:F] A,4 A,2 | G,4 A,2 | B,4 G,2 | A,6 | C4 C2 | D4 D2 | C4 C2 | C2 C2 z2 | A,4 A,2 | G,4 A,2 | %10
 B,4 G,2 | A,6 | C4 C2 | D4 D2 | C4 C2 | C2 C2 z2 | (C2 D2) C2 | D4 C2 | C4 F,2 | G,6 | B,4 A,2 | %21
 G,4 F,2 | G,4"^Verse 4 on next page" G,2 | A,6 ||[M:3/4] A,4 A,2 | G,4 A,2 | C4 B,2 | A,4 z2 | %28
 C4 C2 | C4 A,2 |[M:3/4] C4 C2 | C4 z2 | A,4 A,2 | A,2 G,2 A,2 | B,2 C2 B,2 | A,4 z2 | C4 C2 | %37
 C4 A,2 | C4 C2 | C4 z2 | C2 D2 C2 | B,4 C2 | C4 F,2 | G,4 A,2 | B,4 B,2 | G,4 F,2 | D2 C2 B,2 | %47
 A,6 |] %48
V:5
[K:F] F,4 F,2 | C,4 F,2 | B,,4 C,2 | F,6 | F,4 F,2 | D,4 D,2 | E,4 F,2 | C2 C,2 z2 | F,4 F,2 | %9
 C,4 F,2 | B,,4 C,2 | F,6 | F,4 F,2 | D,4 D,2 | E,4 F,2 | C2 C,2 z2 | (C2 B,2) A,2 | %17
 (G,2 F,2) E,2 | (F,2 E,2) D,2 | C,6 | B,,4 B,,2 | C,4 D,2 | B,,4 C,2 | F,6 ||[M:3/4] F,4 F,2 | %25
 C,4 F,2 | C,4 C,2 | F,4 z2 | A,,4 A,,2 | F,,4 D,2 |[M:3/4] E,4 F,2 | C,4 z2 | F,4 F,2 | %33
 F,2 C,2 F,2 | C,4 C,2 | F,4 z2 | F,4 F,2 | F,4 F,2 | A,2 G,2 F,2 | C,4 z2 | C2 B,2 A,2 | G,4 C,2 | %42
 F,4 D,2 | C,6 | B,,4 B,,2 | C,4 D,2 | B,,2 C,2 C,2 | F,6 |] %48

